pk/phone-telephone.svg

<svg viewBox="0 0 48 48" fill="none" xmlns="http://www.w3.org/2000/svg" height="1em" width="1em">
  <path d="M16.9961 7.68583C17.7227 7.68583 18.3921 8.07985 18.7448 8.71509L21.1912 13.1219C21.5115 13.6989 21.5266 14.3968 21.2314 14.9871L18.8746 19.7008C18.8746 19.7008 19.5576 23.2122 22.416 26.0706C25.2744 28.929 28.7741 29.6002 28.7741 29.6002L33.487 27.2438C34.0777 26.9484 34.7761 26.9637 35.3533 27.2846L39.7726 29.7416C40.4072 30.0945 40.8008 30.7635 40.8008 31.4896L40.8008 36.5631C40.8008 39.1468 38.4009 41.0129 35.9528 40.1868C30.9249 38.4903 23.1202 35.2601 18.1734 30.3132C13.2265 25.3664 9.99631 17.5617 8.29977 12.5338C7.47375 10.0857 9.33984 7.68583 11.9235 7.68583L16.9961 7.68583Z" fill="#2F88FF" stroke="black" stroke-width="4" stroke-linejoin="round"/>
</svg>

<svg viewBox="0 0 48 48" fill="none" xmlns="http://www.w3.org/2000/svg" height="1em" width="1em">
  <path d="M16.996 7.686a2 2 0 0 1 1.749 1.03l2.446 4.406a2 2 0 0 1 .04 1.865l-2.356 4.714s.683 3.511 3.541 6.37c2.858 2.858 6.358 3.53 6.358 3.53l4.713-2.357a2 2 0 0 1 1.866.04l4.42 2.458A2 2 0 0 1 40.8 31.49v5.073c0 2.584-2.4 4.45-4.848 3.624-5.028-1.697-12.833-4.927-17.78-9.874-4.946-4.947-8.177-12.751-9.873-17.78-.826-2.447 1.04-4.847 3.623-4.847h5.073Z" fill="#2F88FF" stroke="#000" stroke-width="4" stroke-linejoin="round"/>
</svg>
